table-furniture.svg

<svg fill="currentColor" viewBox="0 0 24 24"><path d="M2 7h20v3h-2l1 9h-2.5l-.56-5H6.06l-.56 5H3l1-9H2zm15.5 3h-11l-.21 2h11.42z"/></svg>

<svg  viewBox="0 0 24 24" fill="currentColor"><path  d="M2 7H22V10H20L21 19H18.5L17.94 14H6.06L5.5 19H3L4 10H2V7M17.5 10H6.5L6.29 12H17.71L17.5 10Z"/></svg>
